svgs/duotone/films.svg

<svg xmlns="http://www.w3.org/2000/svg" viewBox="0 0 576 512"><!-- Font Awesome Pro 6.0.0-alpha2 by @fontawesome - https://fontawesome.com License - https://fontawesome.com/license (Commercial License) --><defs><style>.fa-secondary{opacity:.4}</style></defs><path d="M528 32H144C117.49 32 96 53.49 96 80V336C96 362.51 117.49 384 144 384H528C554.51 384 576 362.51 576 336V80C576 53.49 554.51 32 528 32ZM200 327C200 331.969 195.969 336 191 336H161C156.031 336 152 331.969 152 327V297C152 292.031 156.031 288 161 288H191C195.969 288 200 292.031 200 297V327ZM200 223C200 227.969 195.969 232 191 232H161C156.031 232 152 227.969 152 223V193C152 188.031 156.031 184 161 184H191C195.969 184 200 188.031 200 193V223ZM200 119C200 123.969 195.969 128 191 128H161C156.031 128 152 123.969 152 119V89C152 84.031 156.031 80 161 80H191C195.969 80 200 84.031 200 89V119ZM416 320C416 328.836 408.836 336 400 336H272C263.164 336 256 328.836 256 320V240C256 231.162 263.164 224 272 224H400C408.836 224 416 231.162 416 240V320ZM416 176C416 184.836 408.836 192 400 192H272C263.164 192 256 184.836 256 176V96C256 87.162 263.164 80 272 80H400C408.836 80 416 87.162 416 96V176ZM520 327C520 331.969 515.969 336 511 336H481C476.031 336 472 331.969 472 327V297C472 292.031 476.031 288 481 288H511C515.969 288 520 292.031 520 297V327ZM520 223C520 227.969 515.969 232 511 232H481C476.031 232 472 227.969 472 223V193C472 188.031 476.031 184 481 184H511C515.969 184 520 188.031 520 193V223ZM520 119C520 123.969 515.969 128 511 128H481C476.031 128 472 123.969 472 119V89C472 84.031 476.031 80 481 80H511C515.969 80 520 84.031 520 89V119Z" class="fa-secondary"/><path d="M272 336H400C408.836 336 416 328.836 416 320V240C416 231.162 408.836 224 400 224H272C263.164 224 256 231.162 256 240V320C256 328.836 263.164 336 272 336ZM272 192H400C408.836 192 416 184.836 416 176V96C416 87.162 408.836 80 400 80H272C263.164 80 256 87.162 256 96V176C256 184.836 263.164 192 272 192ZM80 432C62.326 432 48 417.672 48 400V96C21.49 96 0 117.492 0 144V416C0 451.344 28.654 480 64 480H432C458.51 480 480 458.508 480 432H80Z" class="fa-primary"/></svg>

<svg xmlns="http://www.w3.org/2000/svg" viewBox="0 0 576 512"><!--! Font Awesome Pro 6.3.0 by @fontawesome - https://fontawesome.com License - https://fontawesome.com/license (Commercial License) Copyright 2023 Fonticons, Inc. --><defs><style>.fa-secondary{opacity:.4}</style></defs><path class="fa-primary" d="M272 336h128c8.836 0 16-7.164 16-16V240C416 231.2 408.8 224 400 224h-128C263.2 224 256 231.2 256 240V320C256 328.8 263.2 336 272 336zM272 192h128C408.8 192 416 184.8 416 176V96c0-8.838-7.164-16-16-16h-128C263.2 80 256 87.16 256 96v80C256 184.8 263.2 192 272 192zM456 480H120C53.83 480 0 426.2 0 360v-240C0 106.8 10.75 96 24 96S48 106.8 48 120v240c0 39.7 32.3 72 72 72h336c13.25 0 24 10.75 24 24S469.3 480 456 480z"/><path class="fa-secondary" d="M528 32h-384C117.5 32 96 53.49 96 80v256C96 362.5 117.5 384 144 384h384c26.51 0 48-21.49 48-48v-256C576 53.49 554.5 32 528 32zM200 327C200 331.1 195.1 336 191 336h-30C156 336 152 331.1 152 327v-30C152 292 156 288 161 288h30C195.1 288 200 292 200 297V327zM200 223C200 227.1 195.1 232 191 232h-30C156 232 152 227.1 152 223v-30C152 188 156 184 161 184h30C195.1 184 200 188 200 193V223zM200 119C200 123.1 195.1 128 191 128h-30C156 128 152 123.1 152 119v-30C152 84.03 156 80 161 80h30C195.1 80 200 84.03 200 89V119zM416 320c0 8.836-7.164 16-16 16h-128C263.2 336 256 328.8 256 320V240C256 231.2 263.2 224 272 224h128C408.8 224 416 231.2 416 240V320zM416 176C416 184.8 408.8 192 400 192h-128C263.2 192 256 184.8 256 176V96c0-8.838 7.164-16 16-16h128C408.8 80 416 87.16 416 96V176zM520 327c0 4.969-4.031 9-9 9h-30c-4.969 0-9-4.031-9-9v-30C472 292 476 288 481 288h30C515.1 288 520 292 520 297V327zM520 223c0 4.969-4.031 9-9 9h-30C476 232 472 227.1 472 223v-30c0-4.969 4.031-9 9-9h30c4.969 0 9 4.031 9 9V223zM520 119C520 123.1 515.1 128 511 128h-30C476 128 472 123.1 472 119v-30C472 84.03 476 80 481 80h30C515.1 80 520 84.03 520 89V119z"/></svg>
